X:1
T:Doha, 87.87.87 D
T:Doha, 87.87.87 D
T:George Crawford Hugg, 1893
T:Public Domain Courtesy of the Cyber Hymnal™
C:George Crawford Hugg, 1893
Z:Public Domain
Z:Courtesy of the Cyber Hymnal™
%%score ( 1 2 ) ( 3 4 )
L:1/8
Q:1/4=103
M:6/8
K:G
V:1 treble 
V:2 treble 
V:3 bass 
V:4 bass 
V:1
 [GB] | [GB]2 [DG] (GF)[DG] | [FA]2 [FA] [FA]2 [Ac] | [GB]2 [EA] [EA]2 [EG] | [DG]3 [DF]2 D | %5
 [GB]2 [DG] (GF)[DG] | [FA]2 [FA] [FA]2 [Ac] | [GB]2 [Gd] [DG]2 [GB] | [FA]3 G2 G | %9
 [FA]2 [FA] ([Ac][GB])[FA] | [GB]2 [Gd] [Gd]2 [GB] | [FA]2 [FA] ([Ac][GB])[FA] | [GB]3 [FA]2 D | %13
 [GB]2 [GB] (BA)G | [CE]2 [EG] [Gc]2 [Ge] | [Gd]2 [GB] [DG]2 [GB] | [FA]3 G2 [Gd] | %17
 [Gd]2 [GB] (BA)G | [FA]2 [GB] [FA]2 [Fd] | [Gd]2 [GB] (BA)G | [GB]3 [FA]2 D | [GB]2 [GB] (BA)G | %22
 [CE]2 [EG] [Gc]2 [Ge] | [Gd]2 [GB] [DG]2 [GB] | [FA]3 G2 |] %25
V:2
 x | x3 D2 x | x6 | x6 | x5 D | x3 D2 x | x6 | x6 | x3 G2 G | x6 | x6 | x6 | x5 D | x3 G2 G | x6 | %15
 x6 | x3 G2 x | x3 G2 G | x6 | x3 G2 G | x5 D | x3 G2 G | x6 | x6 | x3 G2 |] %25
V:3
 [G,D] | [G,D]2 [G,B,] (B,C)[G,B,] | [D,D]2 [D,D] [D,D]2 [D,D] | [G,D]2 [C,C] [C,C]2 [C,C] | %4
 [D,B,]3 [D,A,]2 D, | [G,D]2 [G,B,] (B,C)[G,B,] | [D,D]2 [D,D] [D,D]2 [D,D] | %7
 [G,D]2 [G,B,] [G,B,]2 [G,D] | [D,C]3 [G,B,]2 [G,B,] | [D,D]2 [D,D] [D,D]2 [D,D] | %10
 [G,D]2 [G,B,] [G,B,]2 [G,D] | [D,D]2 [D,D] [D,D]2 [D,D] | [D,D]3 [D,D]2 [D,D] | %13
 [G,D]2 [G,D] (DC)[G,B,] | [C,G,]2 [C,C] [C,E]2 [C,C] | [D,B,]2 [D,D] [D,B,]2 [D,D] | %16
 [D,C]3 [G,B,]2 [G,B,] | [G,B,]2 [G,D] (DC)[G,B,] | [D,D]2 [D,D] [D,D]2 [D,A,] | %19
 [G,B,]2 [G,D] (DC)[G,B,] | [D,D]3 [D,D]2 [D,D] | [G,D]2 [G,D] (DC)[G,B,] | %22
 [C,G,]2 [C,C] [C,E]2 [C,C] | [D,B,]2 [D,D] [D,B,]2 [D,D] | [D,C]3 [G,B,]2 |] %25
V:4
 x | x3 G,2 x | x6 | x6 | x5 D, | x3 G,2 x | x6 | x6 | x6 | x6 | x6 | x6 | x6 | x3 G,2 x | x6 | %15
 x6 | x6 | x3 G,2 x | x6 | x3 G,2 x | x6 | x3 G,2 x | x6 | x6 | x5 |] %25

